images/brands/doctolib.svg

<svg fill="none" height="180" viewBox="0 0 520 180" width="520" xmlns="http://www.w3.org/2000/svg" xmlns:xlink="http://www.w3.org/1999/xlink"><clipPath id="a"><path d="m101 49h317v77h-317z"/></clipPath><g clip-path="url(#a)"><path d="m121.828 125.78c-15.703 0-18.083-1.833-17.277-5.353.585-2.494 13.434-50.4536 13.727-51.5536 1.281-5.1334 6.662-3.8867 6.881-3.85.147.0366.257.1833.22.33-.476 4.1066-8.017 44.6236-8.09 45.1366-.622 3.997 0 4.4 4.942 4.4 24.416 0 33.274-16.9033 35.69-30.3966 4.173-23.3934-18.742-30.3967-50.698-27.5367-.293.0367-2.416.1467-3.331-.2933-1.208-.5867-2.233-2.0534-2.489-2.86-.11-.2934-.11-.5867 0-.77.073-.11.146-.22.256-.2567 10.323-1.8333 24.672-4.29 33.933-3.3 35.067 3.7033 35.067 25.8133 33.018 36.9967-1.135 6.49-7.065 39.3066-46.782 39.3066zm125.702-14.447c-2.269 7.737-9.188 13.09-17.241 13.31-6.772.367-13.544-3.483-16.509-9.423-1.171-2.237-1.83-4.657-2.086-7.517-1.025.477-2.087.917-3.148 1.247-1.391 3.923-3.807 7.553-7.138 10.047-7.138 5.316-16.802 6.856-25.477 2.09-10.689-7.37-9.371-22.2203-1.904-30.947 7.431-8.7266 21.085-10.1933 27.93-5.9033 4.649 3.0067 7.138 8.1767 7.797 13.5667.988-.6967 1.867-1.5767 2.892-2.75.951-1.1367 2.818-3.9234 2.818-3.9234 1.098-1.6866 2.453-3.2633 3.953-4.62 3.148-2.75 7.138-4.1066 11.165-4.1066 3.477 0 7.028 1.0266 10.103 3.1166.988.66 1.245 1.0267.915 1.5767-.439.8067-.915 1.54-1.501 2.2367-1.098 1.32-2.233.8433-3.001.5133-.11-.0367-.22-.11-.33-.1467-3.441-1.21-6.259-.9533-9.188.8067-6.332 3.85-7.284 11.3303-6.113 17.0503 1.208 5.83 4.43 7.81 6.955 8.433 4.613 1.173 10.799-1.32 14.716-5.94 1.171-1.393 2.965-.477 4.246.55.073.037.11.073.146.11.183.22 0 .587 0 .623zm-48.136-19.653c-4.722-5.8666-13.287-3.8866-18.119 1.54-4.832 5.4634-4.905 14.41.366 18.187 4.942 3.52 12.812 1.65 16.692-3.997 2.709-3.96 5.161-10.6333 1.061-15.73zm118.162 12.32c-.659 5.72-3.588 11.513-8.273 15.033-7.138 5.317-16.802 6.857-25.477 2.09-1.098-.77-2.087-1.613-2.929-2.53-1.464 1.32-3.184 2.64-5.088 3.777-5.82 3.52-13.946 2.603-18.961-2.09-3.185-2.86-4.722-7.59-4.137-12.393.513-4.254 4.32-18.9203 7.871-32.047-3.478.11-6.516 0-8.2-.8066-2.709-1.32-2.05-5.83-1.794-7.1134.037-.1833.22-.33.403-.33 1.318 0 6.296-.0366 11.823-.0733 2.307-8.4333 4.137-14.7767 4.137-14.7767.659-2.2366 3.111-3.4466 5.344-3.4466.439 0 .842.0366 1.245.1466.146.0367.219.1834.183.3667-.586 3.63-1.721 10.23-3.075 17.71 3.002 0 5.71.0367 7.541.0733 6.442.1467 14.934.5134 16.655.5867.183 0 .366.1467.403.33.183.8067.329 2.8233-1.977 4.1433-1.977 1.1-16.326 2.1267-22.915 2.5667-.366.0367-.695.0367-1.061.0733-2.746 15.18-5.674 30.91-5.821 31.607-.732 3.666 1.574 5.903 3.624 6.343 3.771.807 6.845-.807 9.408-3.153-1.428-6.857.805-14.557 5.381-19.947 7.431-8.7266 21.084-10.1933 27.929-5.9033 6.443 4.2167 8.712 12.5033 7.761 19.7633zm-10.25-12.32c-4.722-5.8666-13.287-3.8866-18.119 1.54-4.832 5.4634-4.905 14.41.366 18.187 4.941 3.52 12.812 1.65 16.692-3.997 2.708-3.96 5.161-10.6333 1.061-15.73zm53.151-18.37c2.123 1.3934 4.795.7334 6.516-.55 1.171-.88 1.94-2.31 2.123-3.85.219-1.6133-.183-3.8866-1.977-5.06-.696-.44-1.501-.6233-2.343-.6233-1.318 0-2.672.4767-3.733 1.1-.33.22-.586.44-.842.7333-.147.1834-.293.4034-.403.6234-1.501 2.64-1.83 5.9033.659 7.6266zm49.197 11c-4.868-3.08-13.251-3.19-20.352.1834 1.537-8.47 4.868-31.7167 5.344-34.65.037-.11 0-.1834-.037-.2567-.036-.0733-.109-.11-.183-.11-.402-.0733-.805-.1467-1.244-.1467-2.233 0-4.686 1.21-5.345 3.4467 0 0-13.031 52.6903-13.47 55.1463-3.002 4.657-6.626 6.454-10.579 5.244-3.295-1.027-3.112-3.557-3.002-4.804.183-1.98 3.588-21.523 4.21-25.8863.036-.2933-.147-.55-.439-.6233-.696-.11-1.428-.1834-2.16-.1834-2.416 0-4.905.88-6.369 4.5467-.037.1467-4.32 15.1433-5.125 18.3703-.11.403-.183.806-.293 1.21-3.148 4.766-8.016 8.946-15.045 7.443-2.05-.44-4.319-1.943-3.624-6.343.183-1.174 6.626-38.5003 8.493-50.417.036-.1833-.037-.33-.183-.3666-.403-.11-.842-.1467-1.245-.1467-2.233 0-4.649 1.21-5.344 3.4467 0 0-10.286 37.8033-12.482 48.4736-.989 4.693-.293 9.276 3.88 12.98 3.88 3.483 11.347 4.583 17.534 1.98 3.587-1.504 6.588-3.96 8.675-6.087 2.709 5.427 9.188 8.947 15.154 7.517 4.613-1.1 8.127-4.437 10.433-7.224.915 1.32 1.977 2.494 3.111 3.41 5.308 4.217 12.812 4.987 19.621 2.97 3.441-.77 6.735-2.273 9.59-4.4 4.686-3.556 7.651-9.313 8.273-15.033.952-7.26-1.354-15.5466-7.797-19.69zm-3.368 23.943c-3.843 5.647-12.665 7.774-17.607 4.254-5.307-3.777-4.282-13.017.549-18.4436 4.832-5.4634 13.398-7.4067 18.12-1.54 4.1 5.06 1.647 11.7336-1.062 15.7296z" fill="#1d78c6"/></g></svg>

<svg width="520" height="180" viewBox="0 0 520 180" fill="none" xmlns="http://www.w3.org/2000/svg">
<g clip-path="url(#clip0_248_4939)">
<path d="M121.828 125.78C106.125 125.78 103.745 123.947 104.551 120.427C105.136 117.933 117.985 69.9734 118.278 68.8734C119.559 63.74 124.94 64.9867 125.159 65.0234C125.306 65.06 125.416 65.2067 125.379 65.3534C124.903 69.46 117.362 109.977 117.289 110.49C116.667 114.487 117.289 114.89 122.231 114.89C146.647 114.89 155.505 97.9867 157.921 84.4934C162.094 61.1 139.179 54.0967 107.223 56.9567C106.93 56.9934 104.807 57.1034 103.892 56.6634C102.684 56.0767 101.659 54.61 101.403 53.8034C101.293 53.51 101.293 53.2167 101.403 53.0334C101.476 52.9234 101.549 52.8134 101.659 52.7767C111.982 50.9434 126.331 48.4867 135.592 49.4767C170.659 53.18 170.659 75.29 168.61 86.4734C167.475 92.9634 161.545 125.78 121.828 125.78ZM247.53 111.333C245.261 119.07 238.342 124.423 230.289 124.643C223.517 125.01 216.745 121.16 213.78 115.22C212.609 112.983 211.95 110.563 211.694 107.703C210.669 108.18 209.607 108.62 208.546 108.95C207.155 112.873 204.739 116.503 201.408 118.997C194.27 124.313 184.606 125.853 175.931 121.087C165.242 113.717 166.56 98.8667 174.027 90.14C181.458 81.4134 195.112 79.9467 201.957 84.2367C206.606 87.2434 209.095 92.4134 209.754 97.8034C210.742 97.1067 211.621 96.2267 212.646 95.0534C213.597 93.9167 215.464 91.13 215.464 91.13C216.562 89.4434 217.917 87.8667 219.417 86.51C222.565 83.76 226.555 82.4034 230.582 82.4034C234.059 82.4034 237.61 83.43 240.685 85.52C241.673 86.18 241.93 86.5467 241.6 87.0967C241.161 87.9034 240.685 88.6367 240.099 89.3334C239.001 90.6534 237.866 90.1767 237.098 89.8467C236.988 89.81 236.878 89.7367 236.768 89.7C233.327 88.49 230.509 88.7467 227.58 90.5067C221.248 94.3567 220.296 101.837 221.467 107.557C222.675 113.387 225.897 115.367 228.422 115.99C233.035 117.163 239.221 114.67 243.138 110.05C244.309 108.657 246.103 109.573 247.384 110.6C247.457 110.637 247.494 110.673 247.53 110.71C247.713 110.93 247.53 111.297 247.53 111.333ZM199.394 91.68C194.672 85.8134 186.107 87.7934 181.275 93.22C176.443 98.6834 176.37 107.63 181.641 111.407C186.583 114.927 194.453 113.057 198.333 107.41C201.042 103.45 203.494 96.7767 199.394 91.68ZM317.556 104C316.897 109.72 313.968 115.513 309.283 119.033C302.145 124.35 292.481 125.89 283.806 121.123C282.708 120.353 281.719 119.51 280.877 118.593C279.413 119.913 277.693 121.233 275.789 122.37C269.969 125.89 261.843 124.973 256.828 120.28C253.643 117.42 252.106 112.69 252.691 107.887C253.204 103.633 257.011 88.9667 260.562 75.84C257.084 75.95 254.046 75.84 252.362 75.0334C249.653 73.7134 250.312 69.2034 250.568 67.92C250.605 67.7367 250.788 67.59 250.971 67.59C252.289 67.59 257.267 67.5534 262.794 67.5167C265.101 59.0834 266.931 52.74 266.931 52.74C267.59 50.5034 270.042 49.2934 272.275 49.2934C272.714 49.2934 273.117 49.33 273.52 49.44C273.666 49.4767 273.739 49.6234 273.703 49.8067C273.117 53.4367 271.982 60.0367 270.628 67.5167C273.63 67.5167 276.338 67.5534 278.169 67.59C284.611 67.7367 293.103 68.1034 294.824 68.1767C295.007 68.1767 295.19 68.3234 295.227 68.5067C295.41 69.3134 295.556 71.33 293.25 72.65C291.273 73.75 276.924 74.7767 270.335 75.2167C269.969 75.2534 269.64 75.2534 269.274 75.29C266.528 90.47 263.6 106.2 263.453 106.897C262.721 110.563 265.027 112.8 267.077 113.24C270.848 114.047 273.922 112.433 276.485 110.087C275.057 103.23 277.29 95.53 281.866 90.14C289.297 81.4134 302.95 79.9467 309.795 84.2367C316.238 88.4534 318.507 96.74 317.556 104ZM307.306 91.68C302.584 85.8134 294.019 87.7934 289.187 93.22C284.355 98.6834 284.282 107.63 289.553 111.407C294.494 114.927 302.365 113.057 306.245 107.41C308.953 103.45 311.406 96.7767 307.306 91.68ZM360.457 73.31C362.58 74.7034 365.252 74.0434 366.973 72.76C368.144 71.88 368.913 70.45 369.096 68.91C369.315 67.2967 368.913 65.0234 367.119 63.85C366.423 63.41 365.618 63.2267 364.776 63.2267C363.458 63.2267 362.104 63.7034 361.043 64.3267C360.713 64.5467 360.457 64.7667 360.201 65.06C360.054 65.2434 359.908 65.4634 359.798 65.6834C358.297 68.3234 357.968 71.5867 360.457 73.31ZM409.654 84.31C404.786 81.23 396.403 81.12 389.302 84.4934C390.839 76.0234 394.17 52.7767 394.646 49.8434C394.683 49.7334 394.646 49.66 394.609 49.5867C394.573 49.5134 394.5 49.4767 394.426 49.4767C394.024 49.4034 393.621 49.33 393.182 49.33C390.949 49.33 388.496 50.54 387.837 52.7767C387.837 52.7767 374.806 105.467 374.367 107.923C371.365 112.58 367.741 114.377 363.788 113.167C360.493 112.14 360.676 109.61 360.786 108.363C360.969 106.383 364.374 86.84 364.996 82.4767C365.032 82.1834 364.849 81.9267 364.557 81.8534C363.861 81.7434 363.129 81.67 362.397 81.67C359.981 81.67 357.492 82.55 356.028 86.2167C355.991 86.3634 351.708 101.36 350.903 104.587C350.793 104.99 350.72 105.393 350.61 105.797C347.462 110.563 342.594 114.743 335.565 113.24C333.515 112.8 331.246 111.297 331.941 106.897C332.124 105.723 338.567 68.3967 340.434 56.48C340.47 56.2967 340.397 56.15 340.251 56.1134C339.848 56.0034 339.409 55.9667 339.006 55.9667C336.773 55.9667 334.357 57.1767 333.662 59.4134C333.662 59.4134 323.376 97.2167 321.18 107.887C320.191 112.58 320.887 117.163 325.06 120.867C328.94 124.35 336.407 125.45 342.594 122.847C346.181 121.343 349.182 118.887 351.269 116.76C353.978 122.187 360.457 125.707 366.423 124.277C371.036 123.177 374.55 119.84 376.856 117.053C377.771 118.373 378.833 119.547 379.967 120.463C385.275 124.68 392.779 125.45 399.588 123.433C403.029 122.663 406.323 121.16 409.178 119.033C413.864 115.477 416.829 109.72 417.451 104C418.403 96.74 416.097 88.4534 409.654 84.31ZM406.286 108.253C402.443 113.9 393.621 116.027 388.679 112.507C383.372 108.73 384.397 99.49 389.228 94.0634C394.06 88.6 402.626 86.6567 407.348 92.5234C411.448 97.5834 408.995 104.257 406.286 108.253Z" fill="#1D78C6"/>
</g>
<defs>
<clipPath id="clip0_248_4939">
<rect width="317" height="77" fill="white" transform="translate(101 49)"/>
</clipPath>
</defs>
</svg>
